svgs/sharp-light/square-arrow-up-left.svg

<svg xmlns="http://www.w3.org/2000/svg" viewBox="0 0 448 512"><!--! Font Awesome Pro 6.4.2 by @fontawesome - https://fontawesome.com License - https://fontawesome.com/license (Commercial License) Copyright 2023 Fonticons, Inc. --><path d="M32 64V448H416V64H32zM0 32H32 416h32V64 448v32H416 32 0V448 64 32zM144 160H280h16v32H280 182.6L315.3 324.7 326.6 336 304 358.6l-11.3-11.3L160 214.6V320v16H128V320 176 160h16z"/></svg>

<svg xmlns="http://www.w3.org/2000/svg" viewBox="0 0 448 512"><!--! Font Awesome Pro 6.6.0 by @fontawesome - https://fontawesome.com License - https://fontawesome.com/license (Commercial License) Copyright 2024 Fonticons, Inc. --><path d="M32 64l0 384 384 0 0-384L32 64zM0 32l32 0 384 0 32 0 0 32 0 384 0 32-32 0L32 480 0 480l0-32L0 64 0 32zM144 160l136 0 16 0 0 32-16 0-97.4 0L315.3 324.7 326.6 336 304 358.6l-11.3-11.3L160 214.6 160 320l0 16-32 0 0-16 0-144 0-16 16 0z"/></svg>
